!!!COM:	la Rue, Pierre de
!!!CDT:	~1452///-1518/11/20
!!!OPR:	Missa Pascale
!!!ONM:	4
!!!OTL:	Sanctus
!!!AGN:	Mass; Sanctus
!!!SCT:	Rue1023d
!!!SCA:	Rue1023d
!!!voices-OPR:	5
!!!voices:	5
**kern	**kern	**kern	**kern	**kern
*Ivox	*Ivox	*Ivox	*Ivox	*Ivox
*I"Bassus	*I"Tenor2	*I"Tenor	*I"Contra	*I"Discantus
*I'B	*I'T2	*I'T	*I'C	*I'D
*staff5	*staff4	*staff3	*staff2	*staff1
*>[A,B,C,D,E,C]	*>[A,B,C,D,E,C]	*>[A,B,C,D,E,C]	*>[A,B,C,D,E,C]	*>[A,B,C,D,E,C]
*>A	*>A	*>A	*>A	*>A
*clefF4	*clefGv2	*clefGv2	*clefGv2	*clefG2
*k[]	*k[]	*k[]	*k[]	*k[]
*M3/1	*M3/1	*M3/1	*M3/1	*M3/1
*met(O)	*met(O)	*met(O)	*met(O)	*met(O)
!!section: Sanctus
!!!OMD: Sanctus
=1-	=1-	=1-	=1-	=1-
0.r	0G	0.r	0.r	0g
.	[1c	.	.	1g
=2	=2	=2	=2	=2
0.r	1c]	0.r	0.r	0cc
.	1.A	.	.	.
.	.	.	.	1a
.	[2c\	.	.	.
=3	=3	=3	=3	=3
0.r	2c\]	0.r	0.r	2.g/
.	4B\	.	.	.
.	4A/	.	.	4a/
.	2G/	.	.	2b\
.	2F/	.	.	1a
.	2A/	.	.	.
.	2B\	.	.	4g/
.	.	.	.	4f/
=4	=4	=4	=4	=4
0C	2c\	0.r	1r	1e
.	4B\	.	.	.
.	4A/	.	.	.
.	1G	.	0c	2r
.	.	.	.	1cc
[1F	[1A	.	.	.
.	.	.	.	[2a/
=5	=5	=5	=5	=5
1F]	1A]	0.r	0f	2a/]
.	.	.	.	2.f/
0D	2d\	.	.	.
.	.	.	.	4e/
.	2.d\	.	.	2d/
.	.	.	[1d	2dd\
.	4c\	.	.	.
.	4B\	.	.	[2dd\
.	4A/	.	.	.
=6	=6	=6	=6	=6
2G\	2.G/	0.r	1d]	4dd\]
.	.	.	.	4cc\
2.G\	.	.	.	4b\
.	4A/	.	.	4a/
.	2B\	.	2.g\	2g/
4F\	.	.	.	.
4E\	2G/	.	.	2cc\
4D\	.	.	4f\	.
2C/	[1c	.	4e\	4cc\
.	.	.	4d\	4b\
[2F\	.	.	2c\	4a/
.	.	.	.	4g/
=7	=7	=7	=7	=7
4F\]	2c\]	0.r	2.f\	2a/
4E\	.	.	.	.
4D\	2.d\	.	.	2b\
4C/	.	.	4e\	.
2D\	.	.	4f\	2a/
.	4c\	.	2d\	.
2E\	4B\	.	.	2.g/
.	4G/	.	4c\	.
1D	1A	.	1d	.
.	.	.	.	4f#i/
.	.	.	.	2f#i/
=8	=8	=8	=8	=8
0GG	0.B	[0.G	2r	1g
.	.	.	2d\	.
.	.	.	2e\	1r
.	.	.	1g	.
1GG	.	.	.	1g
.	.	.	4f\	.
.	.	.	4e\	.
=9	=9	=9	=9	=9
2r	0.r	0G]	0d	0b
1G	.	.	.	.
2F\	.	.	.	.
1E	.	1G	1g	1cc
=10	=10	=10	=10	=10
0D	2r	0A	0f	0dd
.	2d\	.	.	.
.	2A/	.	.	.
.	2.d\	.	.	.
1D	.	1A	1d	1dd
.	4c\	.	.	.
.	[2A/	.	.	.
=11	=11	=11	=11	=11
0AA	2A/]	0.c	0.e	2cc\
.	4G/	.	.	2a/
.	4F/	.	.	.
.	1.E	.	.	2cc\
.	.	.	.	4b\
.	.	.	.	4a/
2.C/	.	.	.	2g/
.	2E/	.	.	2cc\
4BB/	.	.	.	.
=12	=12	=12	=12	=12
2GG/	4G/	1r	2.d\	2b\
.	4F/	.	.	.
2BB/	4E/	.	.	2g/
.	4D/	.	4B\	.
1AA	0E	1r	2c\	2a/
.	.	.	2d\	4g/
.	.	.	.	4f/
1AA	.	1c	1e	2e/
.	.	.	.	[2a/
=13	=13	=13	=13	=13
0D	2.D/	1.d	1f	2a/]
.	.	.	.	2a/
.	4E/	.	.	.
.	4F/	.	2.d\	2.f/
.	4G/	.	.	.
.	1A	2A/	.	.
.	.	.	4e\	4g/
1r	.	2c\	2f\	2a/
.	[2G/	2d\	[2g\	[2b\
=14	=14	=14	=14	=14
1r	2G/]	2B\	4g\]	2b\]
.	.	.	4f\	.
.	2.A/	1e	4e\	2.cc\
.	.	.	4c\	.
0AA	.	.	2.c\	.
.	4G/	.	.	4b\
.	2F/	1d	.	4a/
.	.	.	4B\	4g/
.	1E	.	1A	1a
.	.	2c#i\	.	.
=15	=15	=15	=15	=15
0D	2.D/	0.d	1.A	2.f/
.	4E/	.	.	4g/
.	2F/	.	.	2a/
.	1G	.	2G/	2d/
1D	.	.	1A	2r
.	2F#i/	.	.	2a/
=16	=16	=16	=16	=16
1GG	1G	0.r	1G	2b\
.	.	.	.	1dd
2.D\	1r	.	1r	.
.	.	.	.	4cc\
4E\	.	.	.	4b\
2F\	1r	.	1d	2a/
2G\	.	.	.	2b\
=17	=17	=17	=17	=17
2.C/	0.r	0c	1.e	2e/
.	.	.	.	1g
4D\	.	.	.	.
2E\	.	.	.	.
2F\	.	.	2c\	1.a
2D\	.	[1d	1f	.
2F\	.	.	.	.
=18	=18	=18	=18	=18
2.G\	0.r	1d]	2d\	1.b
.	.	.	2.g\	.
4F\	.	.	.	.
4E\	.	0e	.	.
4D\	.	.	4f\	.
1.C	.	.	4e\	1cc
.	.	.	4d\	.
.	.	.	2.c\	.
.	.	.	.	4g/
.	.	.	4B\	4a/
=19	=19	=19	=19	=19
2D\	1r	2d\	2A/	4b\
.	.	.	.	4cc\
2GG/	.	2B\	2G/	1dd
1AA	1r	1c	2F/	.
.	.	.	2f\	1cc
2GG/	1G	1d	2.g\	.
2G\	.	.	.	2b\
.	.	.	4f\	.
=20	=20	=20	=20	=20
2.A\	2.c\	1c	2e\	1cc
.	.	.	4f\	.
4G\	4B\	.	4e\	.
2F\	2A/	1r	4d\	1r
.	.	.	4c\	.
2E\	1G	.	1c	.
1D	.	1r	.	1r
.	2F/	.	2B\	.
=21	=21	=21	=21	=21
0C	0G	0e	0.c	1.cc
.	.	.	.	2cc\
1C	1G	1e	.	1cc
=22	=22	=22	=22	=22
0GG	0G	0d	0.r	1.b
.	.	.	.	4cc\
.	.	.	.	4b\
1AA	1E	1c	.	2cc\
.	.	.	.	[2a/
=23	=23	=23	=23	=23
2C/	2E/	2r	1r	2a/]
2D\	1A	1d	.	4g/
.	.	.	.	4f/
1E	.	.	1e	1g
.	2G/	2c\	.	.
1D	1A	2d\	[1f	2.f/
.	.	[2A/	.	.
.	.	.	.	4g/
=24	=24	=24	=24	=24
0.r	2F/	2A/]	2f\]	2a/
.	2D/	1d	2f\	1b-i
.	1F	.	1f	.
.	.	2c\	.	2.a/
.	1G	1B	2.d\	.
.	.	.	.	4g/
.	.	.	.	2g/
.	.	.	4e\	.
=25	=25	=25	=25	=25
1D	1F	0.A	1.f	1a
2D\	1r	.	.	2a/
1F	.	.	4e\	1a
.	.	.	4d\	.
.	1r	.	2.c\	.
2E\	.	.	.	2g/
.	.	.	4d\	.
=26	=26	=26	=26	=26
2D\	0.r	1r	2d\	2f/
2C/	.	.	2A/	2e/
1BB	.	1r	2.d\	1d
.	.	.	4c\	.
1BB	.	1d	4B\	1d
.	.	.	4A/	.
.	.	.	2B\	.
=27	=27	=27	=27	=27
1.AA	1.A	2.e\	2c\	1c
.	.	.	2A/	.
.	.	4d\	.	.
.	.	2c\	2c\	1r
2BB/	4G/	4B\	2d\	.
.	4F/	4A/	.	.
2.C/	2.E/	2G/	1e	1r
.	.	[2c\	.	.
4D\	4F/	.	.	.
=28	=28	=28	=28	=28
4E\	4G/	2c\]	2e\	1r
4F\	4A/	.	.	.
2G\	4B\	1G	1d	.
.	4c\	.	.	.
1GG	0d	.	.	1r
.	.	2B\	2.g\	.
1D	.	1A	.	1a
.	.	.	4f#i\	.
.	.	.	2f#i\	.
=29	=29	=29	=29	=29
1GG	1B	1G	2.g\	2b\
.	.	.	.	2.g/
.	.	.	4f\	.
1r	2G/	2r	4e\	.
.	.	.	4d\	4f/
.	2.A/	1c	4c\	4e/
.	.	.	4B\	4d/
1r	.	.	2A/	2e/
.	4G/	.	.	.
.	4F/	[2c\	[2f\	[2a/
.	4E/	.	.	.
=30	=30	=30	=30	=30
0.r	1F	2c\]	4f\]	2a/]
.	.	.	4e\	.
.	.	1c	4c\	2a/
.	.	.	4d\	.
.	0E	.	0e	0g
.	.	1B	.	.
.	.	[2c\	.	.
=31	=31	=31	=31	=31
2r	2.A/	2c\]	2r	2f/
2.D\	.	1d	1f	2d/
.	4F/	.	.	.
.	1F	.	.	4f/
4E\	.	.	.	4g/
4F\	.	1c	2f\	4a/
4G\	.	.	.	4b\
2A\	1r	.	2e\	2.cc\
[2AA/	.	2A/	[2c\	.
.	.	.	.	4b\
=32	=32	=32	=32	=32
4AA/]	1r	2.c\	4c\]	4a/
4BB/	.	.	4d\	4g/
4C/	.	.	4e\	1a
4D\	.	4B\	4f\	.
4E\	1r	2G/	2g\	.
4F\	.	.	.	.
2G\	.	2B\	2.d\	2.g/
1D	1F	1A	.	.
.	.	.	4c\	4f#i/
.	.	.	2A/	2f#i/
=33	=33	=33	=33	=33
0.GG	2D/	[0.Gl	2.B\	[0.gl
.	2E/	.	.	.
.	.	.	4c\	.
.	0D	.	0d	.
=34	=34	=34	=34	=34
0.GGl	0.Dl	0.G]	0.dl	0.g]
!!LO:LB:i:g=z
=35||	=35||	=35||	=35||	=35||
*>B	*>B	*>B	*>B	*>B
*clefF4	*clefGv2	*clefGv2	*clefGv2	*clefG2
*k[]	*k[]	*k[]	*k[]	*k[]
*M2/1	*M2/1	*M2/1	*M2/1	*M2/1
*met(C|)	*met(C|)	*met(C|)	*met(C|)	*met(C|)
!!section: Pleni sunt celi
!!!OMD: Pleni sunt celi
0G	0r	0r	1r	0r
.	.	.	[1d	.
=36	=36	=36	=36	=36
1F	0r	0r	2d\]	0r
.	.	.	4c\	.
.	.	.	4B\	.
1F	.	.	2A/	.
.	.	.	2c\	.
=37	=37	=37	=37	=37
2G\	0r	0r	2B\	0r
2B\	.	.	1G	.
1A	.	.	.	.
.	.	.	2F/	.
=38	=38	=38	=38	=38
1G	0r	0r	2G/	1r
.	.	.	2B\	.
2F\	.	.	4A/	[1a
.	.	.	4B\	.
4E\	.	.	4c\	.
4D\	.	.	4d\	.
=39	=39	=39	=39	=39
2C/	0r	0r	2e\	2a/]
2D\	.	.	1d	4g/
.	.	.	.	4f/
1E	.	.	.	2e/
.	.	.	2c\	2g/
=40	=40	=40	=40	=40
1D	0r	0r	2d\	2f/
.	.	.	2f\	1d
1AA	.	.	1e	.
.	.	.	.	2c/
=41	=41	=41	=41	=41
0r	0r	0r	1d	2d/
.	.	.	.	2f/
.	.	.	2c\	4e/
.	.	.	.	4f/
.	.	.	4B\	4g/
.	.	.	4A/	4a/
=42	=42	=42	=42	=42
1r	0r	0r	2G/	2b\
.	.	.	2A/	1a
2r	.	.	1B	.
2E\	.	.	.	2g#i/
=43	=43	=43	=43	=43
2F\	0r	0r	1A	0a
4E\	.	.	.	.
4D\	.	.	.	.
2C/	.	.	2r	.
2D\	.	.	[2d\	.
=44	=44	=44	=44	=44
1E	0r	0r	2d\]	0r
.	.	.	2c\	.
2r	.	.	2d\	.
[2D\	.	.	[2f\	.
=45	=45	=45	=45	=45
2D\]	0r	0r	2f\]	0r
4C/	.	.	4e\	.
4BB/	.	.	4d\	.
2C/	.	.	2e\	.
[2D\	.	.	[2f\	.
=46	=46	=46	=46	=46
4D\]	0r	0r	4f\]	2r
4C/	.	.	4e\	.
2D\	.	.	4d\	1a
.	.	.	4c\	.
1E	.	.	1B	.
.	.	.	.	2g/
=47	=47	=47	=47	=47
2AA/	0r	0r	0A	2a/
1A	.	.	.	1cc
4G\	.	.	.	4b\
4F\	.	.	.	4a/
=48	=48	=48	=48	=48
2G\	0r	0r	0r	2b\
2.A\	.	.	.	2.cc\
4G\	.	.	.	4b\
4F\	.	.	.	4a/
4E\	.	.	.	4g/
=49	=49	=49	=49	=49
1D	0r	0r	1r	1f
[1C	.	.	2r	2e/
.	.	.	[2e\	[2cc\
=50	=50	=50	=50	=50
1C]	0r	0r	2e\]	2cc\]
.	.	.	4d\	4b\
.	.	.	4c\	4a/
2r	.	.	2d\	2b\
2C/	.	.	[2e\	4cc\
.	.	.	.	4b\
=51	=51	=51	=51	=51
1C	0r	0r	4e\]	4a/
.	.	.	4d\	4g/
.	.	.	4c\	1g
.	.	.	4B\	.
1D	.	.	1A	.
.	.	.	.	2f#i/
=52	=52	=52	=52	=52
2.E\	0r	0r	1G	0g
4F\	.	.	.	.
2G\	.	.	2r	.
[2C/	.	.	2c\	.
=53	=53	=53	=53	=53
2C/]	0r	0r	1c	0r
1F	.	.	.	.
.	.	.	1d	.
4E\	.	.	.	.
4D\	.	.	.	.
=54	=54	=54	=54	=54
2C/	0r	0r	2.e\	1r
2C/	.	.	.	.
.	.	.	4f\	.
2.C/	.	.	2g\	2r
.	.	.	[2c\	2g/
4D\	.	.	.	.
=55	=55	=55	=55	=55
4E\	0r	0r	4c\]	1g
4F\	.	.	4d\	.
1G	.	.	2B\	.
.	.	.	1A	1a
2F#i\	.	.	.	.
=56	=56	=56	=56	=56
[0G	0r	0r	1G	2.b\
.	.	.	.	4cc\
.	.	.	2r	2dd\
.	.	.	[2e\	[2g/
=57	=57	=57	=57	=57
0G_	0r	0r	2e\]	2g/]
.	.	.	4d\	4f/
.	.	.	4c\	4e/
.	.	.	4e\	4g/
.	.	.	4d\	4f/
.	.	.	4e\	4g/
.	.	.	4f\	4a/
=58	=58	=58	=58	=58
0G]	0r	0r	2g\	2b\
.	.	.	2e\	1cc
.	.	.	1d	.
.	.	.	.	2b\
=59	=59	=59	=59	=59
0r	0r	0r	0c	1cc
.	.	.	.	2r
.	.	.	.	2a/
=60	=60	=60	=60	=60
0r	0r	0r	2r	2b\
.	.	.	2e\	2g/
.	.	.	2f\	2a/
.	.	.	2d\	4g/
.	.	.	.	4f/
=61	=61	=61	=61	=61
0r	0r	0r	2e\	4e/
.	.	.	.	4f/
.	.	.	4d\	4g/
.	.	.	4c\	4a/
.	.	.	2B\	4b\
.	.	.	.	4g/
.	.	.	2c\	[2a/
=62	=62	=62	=62	=62
1r	0r	0r	2A/	2a/]
.	.	.	1d	4g/
.	.	.	.	4f/
2r	.	.	.	1e
2A\	.	.	2c#i\	.
=63	=63	=63	=63	=63
2B\	0r	0r	1d	2r
2G\	.	.	.	2d/
2A\	.	.	1r	2f/
4G\	.	.	.	4e/
4F\	.	.	.	4d/
=64	=64	=64	=64	=64
4E\	0r	0r	0r	4c/
4F\	.	.	.	4d/
4G\	.	.	.	4e/
4A\	.	.	.	4f/
4B\	.	.	.	4g/
4G\	.	.	.	4e/
[2A\	.	.	.	[2f/
=65	=65	=65	=65	=65
2A\]	0r	0r	1r	4f/]
.	.	.	.	4e/
4G\	.	.	.	1d
4F\	.	.	.	.
1E	.	.	2r	.
.	.	.	2e\	2c#i/
=66	=66	=66	=66	=66
4D\	0r	0r	2f\	2d/
4E\	.	.	.	.
4F\	.	.	4e\	2a/
4G\	.	.	4d\	.
1A	.	.	4c\	1cc
.	.	.	4d\	.
.	.	.	4e\	.
.	.	.	4f\	.
=67	=67	=67	=67	=67
2G\	0r	0r	4g\	2b\
.	.	.	4e\	.
2A\	.	.	2.f\	1a
2.F\	.	.	.	.
.	.	.	4e\	.
.	.	.	[2d\	4g/
4D\	.	.	.	4f/
=68	=68	=68	=68	=68
1E	0r	0r	2d\]	1g
.	.	.	2c#i\	.
1D	.	.	1d	1f
=69	=69	=69	=69	=69
0r	0r	0r	1f	2r
.	.	.	.	2a/
.	.	.	2g\	2b\
.	.	.	[2f\	[2a/
=70	=70	=70	=70	=70
1r	0r	0r	2f\]	2a/]
.	.	.	4e\	1dd
.	.	.	4d\	.
2r	.	.	1e	.
2A\	.	.	.	2cc\
=71	=71	=71	=71	=71
2.B-i\	0r	0r	[0d	2.dd\
4A\	.	.	.	4cc\
2F\	.	.	.	2a/
[2G\	.	.	.	[2b-i\
=72	=72	=72	=72	=72
2G\]	0r	0r	0d]	2b-\]
4F\	.	.	.	4a/
4E\	.	.	.	4g/
[1D	.	.	.	2.f/
.	.	.	.	4g/
=73	=73	=73	=73	=73
1D]	0r	0r	2r	2a/
.	.	.	2A/	2.d/
2.D\	.	.	2B\	.
.	.	.	.	4e/
.	.	.	[2A/	4f/
4E\	.	.	.	4g/
=74	=74	=74	=74	=74
2F\	0r	0r	2A/]	2a/
2G\	.	.	1d	1b-i
1E	.	.	.	.
.	.	.	2c\	4a/
.	.	.	.	4g/
=75	=75	=75	=75	=75
0D	0r	0r	2.d\	1f
.	.	.	4c\	.
.	.	.	2A/	[1f
.	.	.	[2B-i\	.
=76	=76	=76	=76	=76
0D	0r	0r	2B-\]	1f]
.	.	.	4A/	.
.	.	.	4G/	.
.	.	.	2.F/	[1fl
.	.	.	4G/	.
=77	=77	=77	=77	=77
[0Dl	0r	0r	2A/	0f_
.	.	.	2.D/	.
.	.	.	4E/	.
.	.	.	4F/	.
.	.	.	4G/	.
=78	=78	=78	=78	=78
0D_	0r	0r	2A/	0f_
.	.	.	1B-i	.
.	.	.	4A/	.
.	.	.	4G/	.
=79	=79	=79	=79	=79
0D]	0r	0r	0Al	0f]
!!LO:LB:i:g=z
=80||	=80||	=80||	=80||	=80||
*>C	*>C	*>C	*>C	*>C
*clefF4	*clefGv2	*clefGv2	*clefGv2	*clefG2
*k[]	*k[]	*k[]	*k[]	*k[]
*M2/1	*M2/1	*M2/1	*M2/1	*M2/1
*met(C2)	*met(C2)	*met(C2)	*met(C2)	*met(C2)
!!section: Osanna
!!!OMD: Osanna
[0GG	0D	[0G	1d	0g
.	.	.	1d	.
=81.	=81.	=81.	=81.	=81.
0GG]	1E	0G]	2.B\	1.g
.	.	.	4c\	.
.	2D/	.	2d\	.
.	[2G/	.	[2e\	2a/
=82	=82	=82	=82	=82
0GG	2G/]	[0G	2e\]	2b\
.	4F/	.	4d\	2.cc\
.	4E/	.	4c\	.
.	1D	.	1d	.
.	.	.	.	4b\
.	.	.	.	2b\
=83.	=83.	=83.	=83.	=83.
[0C	[0E	0G]	0c	1.cc
.	.	.	.	4b\
.	.	.	.	4a/
=84	=84	=84	=84	=84
0C]	0E]	[0c	[0e	0g
=85.	=85.	=85.	=85.	=85.
0AA	1r	0c]	0e]	1r
.	[1A	.	.	[1cc
=86	=86	=86	=86	=86
1r	2A/]	0A	[0e	1cc]
.	4G/	.	.	.
.	4F/	.	.	.
[1AA	[1E	.	.	1cc
=87.	=87.	=87.	=87.	=87.
1AA]	1E]	1r	1e]	1.a
1C	1A	[1A	1e	.
.	.	.	.	4b\
.	.	.	.	4cc\
=88	=88	=88	=88	=88
0BB	1.D	1A]	1d	1dd
.	.	1G	1B	1dd
.	2E/	.	.	.
=89.	=89.	=89.	=89.	=89.
1.AA	1.E	0A	0c	0cc
2BB/	2D/	.	.	.
=90	=90	=90	=90	=90
1C	1E	1G	0r	1cc
1D	1F	1F	.	1a
=91.	=91.	=91.	=91.	=91.
2GG/	2D/	1G	1r	2b\
2BB/	1D	.	.	2g/
1AA	.	1F	1c	1a
.	2C/	.	.	.
=92	=92	=92	=92	=92
2GG/	2D/	1G	1B	1b
1G	2E/	.	.	.
.	2r	1A	2e\	1cc
2F\	2A/	.	2f\	.
=93.	=93.	=93.	=93.	=93.
2G\	2G/	1B	2d\	2b\
2G\	1.E	.	1e	1g
1C	.	1c	.	.
.	.	.	2e\	[2a/
=94	=94	=94	=94	=94
0D	2.F/	0A	0d	4a/]
.	.	.	.	4g/
.	.	.	.	4f#i/
.	4E/	.	.	4e/
.	1D	.	.	1f#i
=95.	=95.	=95.	=95.	=95.
[0GG	0D	[0G	2.B\	[0g
.	.	.	4c\	.
.	.	.	2d\	.
.	.	.	[2G/	.
=96	=96	=96	=96	=96
0GG]	0r	0G]	2G/]	0g]
.	.	.	1d	.
.	.	.	4c\	.
.	.	.	4B\	.
=97.	=97.	=97.	=97.	=97.
0r	2r	0r	2d\	0r
.	1G	.	4c\	.
.	.	.	4B\	.
.	.	.	1A	.
.	2F/	.	.	.
=98	=98	=98	=98	=98
0r	2G/	0r	2G/	2r
.	2B\	.	2d\	1g
.	2A/	.	2c\	.
.	2c\	.	2A/	2f/
=99.	=99.	=99.	=99.	=99.
2r	2B\	0r	2G/	2g/
1G	2G/	.	2d\	2b\
.	1A	.	2r	2a/
2F\	.	.	4c\	2cc\
.	.	.	4d\	.
=100	=100	=100	=100	=100
2G\	1B	0r	4e\	2b\
.	.	.	4f\	.
2B\	.	.	1g	2g/
1A	1c	.	.	1a
.	.	.	2f#i\	.
=101.	=101.	=101.	=101.	=101.
0G	[0d	[0B	1g	0b
.	.	.	1G	.
=102	=102	=102	=102	=102
1G	1d]	0B]	0r	1r
1G	1d	.	.	1dd
=103.	=103.	=103.	=103.	=103.
2C/	2e\	[0c	0r	1.cc
1A	1A	.	.	.
2G\	2B\	.	.	2b\
=104	=104	=104	=104	=104
2.F\	2c\	0c]	0r	2a/
.	1A	.	.	4g/
8E\L	.	.	.	4f/
8D\J	.	.	.	.
1E	.	.	.	1g
.	2G/	.	.	.
=105.	=105.	=105.	=105.	=105.
[0D	0A	0d	0r	2.f/
.	.	.	.	4g/
.	.	.	.	2a/
.	.	.	.	[2d/
=106	=106	=106	=106	=106
0D]	1.A	1.d	0r	2d/]
.	.	.	.	2.dd\
.	.	.	.	4cc\
.	4G/	2c\	.	4b\
.	4F/	.	.	4a/
=107.	=107.	=107.	=107.	=107.
1r	2G/	2B\	1r	2g/
.	2F/	2A/	.	1a
1E	1E	1B	1e	.
.	.	.	.	2g#i/
=108	=108	=108	=108	=108
1.F	2r	1.A	2c\	0a
.	1A	.	1d	.
2E\	2G/	4B\	2c\	.
.	.	4c\	.	.
=109.	=109.	=109.	=109.	=109.
2D\	2F/	1d	2B\	1r
2C/	2E/	.	2.A/	.
1BB	1D	1d	.	1b
.	.	.	4G#i/	.
.	.	.	2G#i/	.
=110	=110	=110	=110	=110
1AA	0E	1c	1.A	1.cc
1C	.	2A/	.	.
.	.	2c\	2G/	4b\
.	.	.	.	4a/
=111.	=111.	=111.	=111.	=111.
[0GG	2D/	2d\	[0G	2b\
.	1.G	1e	.	2g/
.	.	.	.	2e/
.	.	[2d\	.	[2g/
=112	=112	=112	=112	=112
0GG]	2E/	2d\]	0G]	2g/]
.	4D/	1c	.	4f/
.	4C/	.	.	4e/
.	1D	.	.	1d
.	.	2B\	.	.
=113.	=113.	=113.	=113.	=113.
2r	2C/	1c	[0G	1e
1C	1E	.	.	.
.	.	1r	.	1r
2BB/	2D/	.	.	.
=114	=114	=114	=114	=114
1C	2E/	2r	0G]	2r
.	2C/	1c	.	2.g/
1GG	1D	.	.	.
.	.	.	.	4f/
.	.	2B\	.	2d/
=115.	=115.	=115.	=115.	=115.
2r	2C/	2A/	1r	2e/
1C	1E	1c	.	2c/
.	.	.	1G	[1g
2BB/	2D/	[2G/	.	.
=116	=116	=116	=116	=116
1C	2E/	2G/]	1.G	1g]
.	2C/	1c	.	.
1GG	1D	.	.	1g
.	.	2B\	4A/	.
.	.	.	4B\	.
=117.	=117.	=117.	=117.	=117.
2r	2C/	2A/	2c\	2.e/
2.C/	2.E/	1c	2A/	.
.	.	.	.	4f/
.	.	.	1G	2g/
4D\	4F/	.	.	.
2E\	2G/	[2G/	.	2e/
=118	=118	=118	=118	=118
2C/	2E/	2G/]	2c\	2g/
2D\	2F/	1d	2B\	2d/
1AA	1E	.	2.A/	1a
.	.	2c\	.	.
.	.	.	4G/	.
=119.	=119.	=119.	=119.	=119.
2r	2D/	2B\	1F	2r
1D	1F	1d	.	2.a/
.	.	.	[1A	.
.	.	.	.	4b\
2C/	2E/	[2A/	.	2cc\
=120	=120	=120	=120	=120
1D	2F/	2A/]	1A]	2.f/
.	2D/	1d	.	.
.	.	.	.	4g/
1AA	1E	.	1A	1a
.	.	2c\	.	.
=121.	=121.	=121.	=121.	=121.
2r	2D/	2B\	2F/	2r
1D	1F	1d	2A/	1.a
.	.	.	2B\	.
2C/	2E/	[2A/	2c\	.
=122	=122	=122	=122	=122
2D\	2F/	2A/]	1A	2f/
2AA/	1E	1c	.	2a/
2C/	.	.	1G	2e/
2GG/	2D/	2B\	.	4g/
.	.	.	.	4f/
=123.	=123.	=123.	=123.	=123.
2AA/	2C/	2A/	1r	4e/
.	.	.	.	4d/
2BB/	2D/	2G/	.	1g
2C/	2E/	1A	2r	.
2D\	2F/	.	2d\	2f#i/
=124	=124	=124	=124	=124
2GG/	2D/	0G	2B\	1g
2.G\	2.B\	.	2G/	.
.	.	.	2B\	1r
4F\	4A/	.	.	.
2E\	[2G/	.	2c\	.
=125.	=125.	=125.	=125.	=125.
1D	2G/]	1r	1d	2r
.	2F#i/	.	.	2.dd\
1GG	1G	[1d	2.B\	.
.	.	.	.	4cc\
.	.	.	.	2b\
.	.	.	4c\	.
=126	=126	=126	=126	=126
0D	1r	1d]	4d\	1.a
.	.	.	4e\	.
.	.	.	1f	.
.	1F	1d	.	.
.	.	.	2f\	[2b\
=127.	=127.	=127.	=127.	=127.
1E	1G	1B	1e	4b\]
.	.	.	.	4a/
.	.	.	.	1g
1C	1E	1c	1e	.
.	.	.	.	4f/
.	.	.	.	4e/
=128	=128	=128	=128	=128
0D	1A	0A	0d	2f/
.	.	.	.	1g
.	2F/	.	.	.
.	2D/	.	.	2f#i/
=129.	=129.	=129.	=129.	=129.
[0GGl	1E	[0Gl	2B\	[0gl
.	.	.	2G/	.
.	[1Dl	.	2.B\	.
.	.	.	4c\	.
=130	=130	=130	=130	=130
0GG]	0D]	0G]	0dl	0g]
!!LO:LB:i:g=z
!!LO:TX:rj:i:Y=40:t=fine
=131||	=131||	=131||	=131||	=131||
*>D	*>D	*>D	*>D	*>D
*clefF4	*clefGv2	*clefGv2	*clefGv2	*clefG2
*k[]	*k[]	*k[]	*k[]	*k[]
*M2/1	*M2/1	*M2/1	*M2/1	*M2/1
*met(C2)	*met(C2)	*met(C2)	*met(C2)	*met(C2)
!!section: Benedictus
!!!OMD: Benedictus
0r	1G	0r	0r	0r
.	2G/	.	.	.
.	[2B\	.	.	.
=132.	=132.	=132.	=132.	=132.
1G	2B\]	0r	0r	0r
.	4A/	.	.	.
.	4G/	.	.	.
2E\	4B\	.	.	.
.	4c\	.	.	.
[2F\	4d\	.	.	.
.	4e\	.	.	.
=133	=133	=133	=133	=133
4F\]	2d\	0r	0r	0r
4E\	.	.	.	.
4D\	1c	.	.	.
4C/	.	.	.	.
1D	.	.	.	.
.	2B\	.	.	.
=134.	=134.	=134.	=134.	=134.
1C	2c\	0r	0r	0r
.	4B\	.	.	.
.	4A/	.	.	.
2r	1G	.	.	.
[2C/	.	.	.	.
=135	=135	=135	=135	=135
2C/]	1A	0r	0r	0r
4BB/	.	.	.	.
4AA/	.	.	.	.
4C/	2F/	.	.	.
4D\	.	.	.	.
4E\	[2G/	.	.	.
4F\	.	.	.	.
=136.	=136.	=136.	=136.	=136.
2E\	4G/]	0r	0r	0r
.	4F/	.	.	.
1D	4E/	.	.	.
.	4D/	.	.	.
.	1E	.	.	.
2C#i/	.	.	.	.
=137	=137	=137	=137	=137
0D	1D	0r	0r	0r
.	2r	.	.	.
.	[2F/	.	.	.
=138.	=138.	=138.	=138.	=138.
2r	2F/]	0r	0r	0r
2D\	4E/	.	.	.
.	4D/	.	.	.
2BB/	4F/	.	.	.
.	4G/	.	.	.
[2C/	4A/	.	.	.
.	4B\	.	.	.
=139	=139	=139	=139	=139
4C/]	2A/	0r	0r	0r
4BB/	.	.	.	.
4AA/	2G/	.	.	.
4GG/	.	.	.	.
1AA	2r	.	.	.
.	2c\	.	.	.
=140.	=140.	=140.	=140.	=140.
1GG	2B\	0r	0r	0r
.	2G/	.	.	.
2C/	2A/	.	.	.
2D\	[2B\	.	.	.
=141	=141	=141	=141	=141
1E	2B\]	0r	0r	0r
.	2G/	.	.	.
2C/	2A/	.	.	.
2D\	2B\	.	.	.
=142.	=142.	=142.	=142.	=142.
2E\	2E/	0r	0r	0r
2.AA/	2r	.	.	.
.	2.E/	.	.	.
4BB/	.	.	.	.
4C/	.	.	.	.
4D\	4F/	.	.	.
=143	=143	=143	=143	=143
1E	4G/	0r	0r	0r
.	4A/	.	.	.
.	4B\	.	.	.
.	4G/	.	.	.
2C/	2c\	.	.	.
2D\	4B\	.	.	.
.	4A/	.	.	.
=144.	=144.	=144.	=144.	=144.
4D\	4B\	0r	0r	0r
4C/	4A/	.	.	.
4BB/	1A	.	.	.
4AA/	.	.	.	.
1BB	.	.	.	.
.	2G#i/	.	.	.
=145	=145	=145	=145	=145
2AA/	2.A/	0r	0r	0r
2A\	.	.	.	.
.	4B\	.	.	.
2F\	4c\	.	.	.
.	4d\	.	.	.
[2G\	4e\	.	.	.
.	4f\	.	.	.
=146.	=146.	=146.	=146.	=146.
4G\]	2e\	0r	0r	0r
4F\	.	.	.	.
4E\	1d	.	.	.
4D\	.	.	.	.
1E	.	.	.	.
.	2c#i\	.	.	.
=147	=147	=147	=147	=147
2.D\	1d	0r	0r	0r
4E\	.	.	.	.
4F\	2B\	.	.	.
4G\	.	.	.	.
4A\	[2c\	.	.	.
4B\	.	.	.	.
=148.	=148.	=148.	=148.	=148.
2A\	4c\]	0r	0r	0r
.	4B\	.	.	.
1G	4A/	.	.	.
.	4G/	.	.	.
.	1A	.	.	.
2F#i\	.	.	.	.
=149	=149	=149	=149	=149
0Gl	0Gl	0r	0r	0r
!!LO:LB:i:g=z
=150||	=150||	=150||	=150||	=150||
*>E	*>E	*>E	*>E	*>E
*clefF4	*clefGv2	*clefGv2	*clefGv2	*clefG2
*k[]	*k[]	*k[]	*k[]	*k[]
*M2/1	*M2/1	*M2/1	*M2/1	*M2/1
*met(C2)	*met(C2)	*met(C2)	*met(C2)	*met(C2)
!!section: In nomine Domini
!!!OMD: In nomine Domini
0r	0r	0r	0r	1g
.	.	.	.	2e/
.	.	.	.	[2f/
=151.	=151.	=151.	=151.	=151.
0r	0r	0r	0r	4f/]
.	.	.	.	4e/
.	.	.	.	4d/
.	.	.	.	4c/
.	.	.	.	1d
=152	=152	=152	=152	=152
0r	0r	0r	1e	1c
.	.	.	2c\	2r
.	.	.	[2d\	2f/
=153.	=153.	=153.	=153.	=153.
0r	0r	0r	2d\]	2g/
.	.	.	4c\	2.a/
.	.	.	4B\	.
.	.	.	1A	.
.	.	.	.	4b\
.	.	.	.	2cc\
=154	=154	=154	=154	=154
0r	0r	0r	1G	2.b\
.	.	.	.	4g/
.	.	.	2r	2a/
.	.	.	2c\	2g/
=155.	=155.	=155.	=155.	=155.
0r	0r	0r	2d\	2r
.	.	.	1e	2b\
.	.	.	.	2cc\
.	.	.	2f\	[2dd\
=156	=156	=156	=156	=156
0r	0r	0r	2d\	2dd\]
.	.	.	1e	2b\
.	.	.	.	2cc\
.	.	.	2f\	[2dd\
=157.	=157.	=157.	=157.	=157.
0r	0r	0r	2d\	2dd\]
.	.	.	1e	4cc\
.	.	.	.	4b\
.	.	.	.	4cc\
.	.	.	.	4b\
.	.	.	4d\	[2dd\
.	.	.	4c\	.
=158	=158	=158	=158	=158
0r	0r	0r	4d\	2dd\]
.	.	.	4c\	.
.	.	.	2e\	1cc
.	.	.	1d	.
.	.	.	.	2b\
=159.	=159.	=159.	=159.	=159.
0r	0r	0r	1c	2cc\
.	.	.	.	4b\
.	.	.	.	4a/
.	.	.	2r	1g
.	.	.	2c\	.
=160	=160	=160	=160	=160
0r	0r	0r	2d\	2r
.	.	.	2e\	2g/
.	.	.	2f\	2a/
.	.	.	2d\	[2b\
=161.	=161.	=161.	=161.	=161.
0r	0r	0r	1e	2b\]
.	.	.	.	2g/
.	.	.	2f\	2a/
.	.	.	2d\	[2b\
=162	=162	=162	=162	=162
0r	0r	0r	2e\	2b\]
.	.	.	2.f\	4a/
.	.	.	.	4g/
.	.	.	.	4a/
.	.	.	4e\	4g/
.	.	.	4d\	[2b\
.	.	.	4c\	.
=163.	=163.	=163.	=163.	=163.
0r	0r	0r	4d\	4b\]
.	.	.	4c\	4a/
.	.	.	4B\	1a
.	.	.	4A/	.
.	.	.	1B	.
.	.	.	.	2g#i/
=164	=164	=164	=164	=164
0r	0r	0r	[0A	2a/
.	.	.	.	2.cc\
.	.	.	.	4b\
.	.	.	.	4a/
.	.	.	.	4g/
=165.	=165.	=165.	=165.	=165.
0r	0r	0r	0A]	2a/
.	.	.	.	4g/
.	.	.	.	4f/
.	.	.	.	2e/
.	.	.	.	2A/
=166	=166	=166	=166	=166
0r	0r	0r	2r	2r
.	.	.	2e\	2cc\
.	.	.	2f\	2dd\
.	.	.	4e\	4cc\
.	.	.	4d\	4b\
=167.	=167.	=167.	=167.	=167.
0r	0r	0r	2c\	2a/
.	.	.	2.d\	1b
.	.	.	4c\	.
.	.	.	4B\	2a/
.	.	.	4A/	.
=168	=168	=168	=168	=168
0r	0r	0r	1G	2b\
.	.	.	.	2.dd\
.	.	.	2r	.
.	.	.	.	4cc\
.	.	.	2d\	4b\
.	.	.	.	4a/
=169.	=169.	=169.	=169.	=169.
0r	0r	0r	2e\	2g/
.	.	.	4d\	4f/
.	.	.	4c\	4e/
.	.	.	4B\	2d/
.	.	.	4A/	.
.	.	.	[2d\	2f/
=170	=170	=170	=170	=170
0r	0r	0r	2d\]	1e
.	.	.	2c\	.
.	.	.	2d\	2d/
.	.	.	2c\	2a/
=171.	=171.	=171.	=171.	=171.
0r	0r	0r	2d\	2b-i\
.	.	.	4c\	4a/
.	.	.	4B\	4g/
.	.	.	2A/	4f/
.	.	.	.	4g/
.	.	.	2c\	4a/
.	.	.	.	4b-i\
=172	=172	=172	=172	=172
0r	0r	0r	2d\	2a/
.	.	.	4c\	2.g/
.	.	.	4B\	.
.	.	.	4A/	.
.	.	.	4G/	4f#i/
.	.	.	2A/	2f#i/
=173.	=173.	=173.	=173.	=173.
0r	0r	0r	0Gl	0gl
!!LO:TX:i:Y=40:rj:t=Osanna ut supra
=||	=||	=||	=||	=||
*-	*-	*-	*-	*-
!!!RDF**kern: l=long note in original notation
!!!RDF**kern: i=editorial accidental
!!!ENC:	Chris Gage 04-23-2013
!!!END:	2013/08/01/
!!!EED:	Jesse Rodin
!!!EEV:	2013/08/02/
!!!ONB:	Translated from MusicXML and edited on 2013/08/02/ by Craig Sapp
!!muse2ps: T^@{OPR}^u^@{ONM}{. }@{OTL}^C^@{COM}^i2I150v85,85,85,85,130c140
